packages/sources/icons/src/vitamix/volume-mute-fill.svg

<svg width="16" height="16" viewBox="0 0 16 16" xmlns="http://www.w3.org/2000/svg"><path fill-rule="evenodd" clip-rule="evenodd" d="M1.33341 10.6666H3.92608L7.45541 13.5546C7.55509 13.6364 7.69296 13.6533 7.80944 13.5981C7.92593 13.5429 8.00017 13.4255 8.00008 13.2966V2.70331C8.00017 2.57441 7.92593 2.45702 7.80944 2.40184C7.69296 2.34666 7.55509 2.36359 7.45541 2.44531L3.92608 5.33331H1.33341C0.965225 5.33331 0.666748 5.63179 0.666748 5.99998V9.99998C0.666748 10.3682 0.965225 10.6666 1.33341 10.6666ZM15.9667 10.3573L13.6094 7.99997L15.9667 5.64264L15.0241 4.69997L12.6667 7.0573L10.3094 4.69997L9.36673 5.64264L11.7241 7.99997L9.36673 10.3573L10.3094 11.3L12.6667 8.94264L15.0241 11.3L15.9667 10.3573Z"/></svg>

<svg width="16" height="16" xmlns="http://www.w3.org/2000/svg"><path fill-rule="evenodd" clip-rule="evenodd" d="M1.333 10.667h2.593l3.53 2.888A.333.333 0 0 0 8 13.297V2.703a.333.333 0 0 0-.545-.258L3.926 5.333H1.333A.667.667 0 0 0 .667 6v4c0 .368.298.667.666.667Zm14.634-.31L13.609 8l2.358-2.357-.943-.943-2.357 2.357L10.309 4.7l-.942.943L11.724 8l-2.357 2.357.942.943 2.358-2.357 2.357 2.357.943-.943Z"/></svg>
